X:1
T:Praeambulum
T:Praeambulum
T:(Prelude) BWV 924
T:Johann Sebastian Bach?
C:Johann Sebastian Bach?
%%score 1 2
L:1/8
M:4/4
K:C
V:1 treble 
V:2 bass 
V:1
 z/ G/c/e/ z/ G/c/e/ z/ G/c/d/ z/ B/d/g/ | z/ A/d/g/ z/ A/d/f/ z/ A/d/e/ z/ c/e/a/ | %2
 z/ B/e/a/ z/ B/e/g/ z/ c/e/f/ z/ G/d/f/ | z/ G/d/e/ z/ G/c/e/ z/ A/c/d/ z/ E/B/d/ | %4
 z/ E/B/c/ z/ E/A/c/ z/ F/A/_B/ z/ C/G/B/ | z/ C/G/A/ z/ C/F/A/ z/ D/F/B/ z/ E/G/c/ | %6
 z/ D/G/c/ z/ D/G/B/ z/ C/G/B/ z/ C/^F/A/ | z/ B,/D/A/ z/ B,/D/G/ z/ A,/C/G/ z/ A,/C/=F/ | %8
 [B,DF]2 z2 x4 | z2 F/G/B/d/ B/G/B/d/ f/g/b/f/ | e/c'/g/f/ e/c'/g/e/ d/c'/f/e/ d/b/f/d/ | %11
 c/b/e/d/ c/a/e/c/ B/a/d/c/ B/g/d/B/ | A/g/c/B/ A/^f/c/A/ B/=f/d/c/ B/f/d/B/ | %13
 G/e/c/B/ A/e/c/A/ ^F/d/B/A/ G/d/B/G/ | E/c/A/G/ ^F/c/A/F/ D/c/MB/A/ B/G/d/=F/ | %15
 G/E/F/d/ c/B/A/G/ f/d/_e/c/ ^F/e/d/c/ | B/d/B/G/ _A/=F/G/D/ _E/^F/=A/c/ D/-[Dc-]/[=F-c]/[FB]/ | %17
 !fermata![CEGc]8 |] %18
V:2
 C,2 E,2 PG,2 G,,2 | PD,2 F,2 PA,2 A,,2 | E,2 PE2 A,2 B,2 | C2 E,2 ^F,2 ^G,2 | A,2 C,2 D,2 E,2 | %5
 F,2 E,2 MD,2 C,2 | PG,2 G,,2 PG,2 G,,2 | PG,2 G,,2 PG,2 G,,2 | %8
 PG,2 z2 z/ G,,/B,,/D,/ F,/G,/B,/D/ | B,/ G,/B,/D/ x6 | [G,,G,]8- | [G,,G,]8- | [G,,G,]8- | %13
 [G,,G,]8- | [G,,G,]8- | [G,,G,]8- | [G,,G,]8 | !fermata!C,8 |] %18

